src/assets/images/swirl.svg

<svg fill="none" height="262" viewBox="0 0 256 262" width="256" xmlns="http://www.w3.org/2000/svg"><path d="m130.303 133.04c.944-.083 1.453 1.666 0 2.579-1.283.973-4.283.266-5.139-2.579-1.019-2.687.939-6.891 5.139-7.736 4.032-1.052 9.49 2.127 10.278 7.736 1.096 5.424-3.333 12.144-10.278 12.895-6.779 1.135-14.703-4.544-15.418-12.895-1.184-8.179 5.737-17.374 15.418-18.052 9.514-1.209 19.934 6.946 20.556 18.052 1.253 10.95-8.125 22.602-20.556 23.211-12.28 1.292-25.123-9.343-25.696-23.211-1.306-13.68 10.499-27.852 25.696-28.368 15.03-1.366 30.335 11.745 30.834 28.368 1.395 16.442-12.897 33.085-30.834 33.527-17.767 1.434-35.5631-14.148-35.9741-33.527-1.468-19.197 15.2901-38.3151 35.9741-38.6841 20.512-1.527 40.774 16.5601 41.112 38.6841 1.542 21.943-17.683 43.562-41.112 43.842-23.258 1.597-45.9871-18.956-46.2521-43.842-1.615-24.718 20.0821-48.7731 46.2521-48.9991 25.998-1.651 51.214 21.3381 51.39 48.9991 1.703 27.475-22.48 54.006-51.39 54.158-28.74 1.724-56.4272-23.741-56.5299-54.158-1.7767-30.225 24.8728-59.2465 56.5299-59.3153 31.485-1.8224 61.639 26.1672 61.668 59.3153 1.85 32.981-27.266 64.484-61.668 64.474-34.2261 1.886-66.8667-28.55-66.808-64.474-1.9382-35.7361 29.6689-69.7096 66.808-69.631 36.991-1.9649 72.059 30.9669 71.946 69.631 1.992 38.488-32.038 74.957-71.946 74.79-39.7421 2.048-77.2672-33.364-77.0861-74.79-2.0605-41.2431 34.432-80.1875 77.0861-79.9468 42.477-2.127 82.498 35.7807 82.224 79.9468 2.149 44.014-36.83 85.415-82.224 85.105-45.2241 2.196-87.7117-38.168-87.3642-85.105-2.222-46.7591 39.2231-90.6604 87.3642-90.2625 47.969-2.2842 92.923 40.5804 92.502 90.2625 2.296 49.536-41.616 95.873-92.502 95.421-50.7061 2.338-98.1512-42.958-97.6422-95.421-2.3885-52.2961 44.0195-101.099 97.6422-100.5783 53.455-2.4119 103.358 45.3598 102.78 100.5783 2.462 55.042-46.413 106.351-102.78 105.737-56.202 2.495-108.5712-47.767-107.9203-105.737-2.5304-57.7974 48.8062-111.5768 107.9203-110.894 58.937-2.5741 113.797 50.1738 113.058 110.894 2.624 60.554-51.209 116.814-113.058 116.053-61.7032 2.647-118.9913-52.576-118.1984-116.053-2.6723-63.2844 53.5781-122.0645 118.1984-121.2098 64.453-2.73122 124.203 54.983 123.336 121.2098 2.746 66.056-55.971 127.292-123.336 126.368-67.1898 2.81-129.430802-57.385-128.4764-126.368-2.8339-68.8107 58.3696-132.522717 128.4764-131.52552" stroke="#fff" stroke-linecap="round" stroke-opacity=".2" stroke-width="3"/></svg>

<svg width="256" height="262" viewBox="0 0 256 262" fill="none" xmlns="http://www.w3.org/2000/svg">
<path d="M130.303 133.04C131.247 132.957 131.756 134.706 130.303 135.619C129.02 136.592 126.02 135.885 125.164 133.04C124.145 130.353 126.103 126.149 130.303 125.304C134.335 124.252 139.793 127.431 140.581 133.04C141.677 138.464 137.248 145.184 130.303 145.935C123.524 147.07 115.6 141.391 114.885 133.04C113.701 124.861 120.622 115.666 130.303 114.988C139.817 113.779 150.237 121.934 150.859 133.04C152.112 143.99 142.734 155.642 130.303 156.251C118.023 157.543 105.18 146.908 104.607 133.04C103.301 119.36 115.106 105.188 130.303 104.672C145.333 103.306 160.638 116.417 161.137 133.04C162.532 149.482 148.24 166.125 130.303 166.567C112.536 168.001 94.7399 152.419 94.3289 133.04C92.8609 113.843 109.619 94.7249 130.303 94.3559C150.815 92.8289 171.077 110.916 171.415 133.04C172.957 154.983 153.732 176.602 130.303 176.882C107.045 178.479 84.3159 157.926 84.0509 133.04C82.4359 108.322 104.133 84.2669 130.303 84.0409C156.301 82.3899 181.517 105.379 181.693 133.04C183.396 160.515 159.213 187.046 130.303 187.198C101.563 188.922 73.8758 163.457 73.7731 133.04C71.9964 102.815 98.6459 73.7935 130.303 73.7247C161.788 71.9023 191.942 99.8919 191.971 133.04C193.821 166.021 164.705 197.524 130.303 197.514C96.0769 199.4 63.4363 168.964 63.495 133.04C61.5568 97.3039 93.1639 63.3304 130.303 63.409C167.294 61.4441 202.362 94.3759 202.249 133.04C204.241 171.528 170.211 207.997 130.303 207.83C90.5609 209.878 53.0358 174.466 53.2169 133.04C51.1564 91.7969 87.6489 52.8525 130.303 53.0932C172.78 50.9662 212.801 88.8739 212.527 133.04C214.676 177.054 175.697 218.455 130.303 218.145C85.0789 220.341 42.5913 179.977 42.9388 133.04C40.7168 86.2809 82.1619 42.3796 130.303 42.7775C178.272 40.4933 223.226 83.3579 222.805 133.04C225.101 182.576 181.189 228.913 130.303 228.461C79.5969 230.799 32.1518 185.503 32.6608 133.04C30.2723 80.7439 76.6803 31.941 130.303 32.4617C183.758 30.0498 233.661 77.8215 233.083 133.04C235.545 188.082 186.67 239.391 130.303 238.777C74.101 241.272 21.7318 191.01 22.3827 133.04C19.8523 75.2426 71.1889 21.4632 130.303 22.146C189.24 19.5719 244.1 72.3198 243.361 133.04C245.985 193.594 192.152 249.854 130.303 249.093C68.5998 251.74 11.3117 196.517 12.1046 133.04C9.4323 69.7556 65.6827 10.9755 130.303 11.8302C194.756 9.09898 254.506 66.8132 253.639 133.04C256.385 199.096 197.668 260.332 130.303 259.408C63.1132 262.218 0.872198 202.023 1.8266 133.04C-1.0073 64.2293 60.1962 0.517283 130.303 1.51448" stroke="white" stroke-opacity="0.2" stroke-width="3" stroke-linecap="round"/>
</svg>
